X:1
T:Tap o' Noth
T:Tap o' Noth
T:Alexander Walker
C:Alexander Walker
L:1/8
M:4/4
K:Eb
V:1 treble 
V:1
 B, | E<EG>E C<FD>B, | E>EG>E B>EG>E | A>c G>B C>FD>B, | C>F (E/D/).C/.B,/ (E2 E) :| f | %6
 g<eB>e c>eB>e | e>Bg>e d<ff>b | g<eB>e c>eB>A | G<EF>D (E2 E)f | g<eB>e c>eB>e | e>Bg>e d<ff>b | %12
 g<ed>f c<e B>G | C>F (E/D/).C/.B,/ [G,E]2- [G,E] || %14

